src/actions/symbolic/multimedia-equalizer-symbolic.svg

<svg width="16" height="16" enable-background="new" version="1.1" xmlns="http://www.w3.org/2000/svg">
 <g fill="#363636">
  <path d="m2.5 1c-0.277 0-0.5 0.223-0.5 0.5v6.5547a2.5 2.5 0 0 1 0.5-0.054688 2.5 2.5 0 0 1 0.5 0.050781v-6.5508c0-0.277-0.223-0.5-0.5-0.5zm0.5 11.945a2.5 2.5 0 0 1-0.5 0.054688 2.5 2.5 0 0 1-0.5-0.050781v1.5508c0 0.277 0.223 0.5 0.5 0.5s0.5-0.223 0.5-0.5v-1.5547z"/>
  <path d="m7.5 1c-0.277 0-0.5 0.223-0.5 0.5v1.5547a2.5 2.5 0 0 1 0.5-0.054688 2.5 2.5 0 0 1 0.5 0.050781v-1.5508c0-0.277-0.223-0.5-0.5-0.5zm0.5 6.9453a2.5 2.5 0 0 1-0.5 0.054688 2.5 2.5 0 0 1-0.5-0.050781v6.5508c0 0.277 0.223 0.5 0.5 0.5s0.5-0.223 0.5-0.5v-6.5547z"/>
  <path d="m12.5 1c-0.277 0-0.5 0.223-0.5 0.5v6.5547a2.5 2.5 0 0 1 0.5-0.054688 2.5 2.5 0 0 1 0.5 0.050781v-6.5508c0-0.277-0.223-0.5-0.5-0.5zm0.5 11.945a2.5 2.5 0 0 1-0.5 0.054688 2.5 2.5 0 0 1-0.5-0.050781v1.5508c0 0.277 0.223 0.5 0.5 0.5s0.5-0.223 0.5-0.5v-1.5547z"/>
  <circle cx="2.5" cy="10.5" r="1.5"/>
  <circle cx="7.5" cy="5.5" r="1.5"/>
  <circle cx="12.5" cy="10.5" r="1.5"/>
 </g>
</svg>

<svg xmlns="http://www.w3.org/2000/svg" width="16" height="16">
    <g fill="#050505" opacity=".7">
        <path d="M2.5 1c-.277 0-.5.223-.5.5v6.555A2.5 2.5 0 0 1 2.5 8a2.5 2.5 0 0 1 .5.05V1.5c0-.277-.223-.5-.5-.5zM3 12.945a2.5 2.5 0 0 1-.5.055 2.5 2.5 0 0 1-.5-.051v1.55a.499.499 0 1 0 1 0v-1.554zM7.5 1c-.277 0-.5.223-.5.5v1.555A2.5 2.5 0 0 1 7.5 3a2.5 2.5 0 0 1 .5.05V1.5c0-.277-.223-.5-.5-.5zM8 7.945A2.5 2.5 0 0 1 7.5 8a2.5 2.5 0 0 1-.5-.05v6.55a.499.499 0 1 0 1 0V7.945zM12.5 1c-.277 0-.5.223-.5.5v6.555A2.5 2.5 0 0 1 12.5 8a2.5 2.5 0 0 1 .5.05V1.5c0-.277-.223-.5-.5-.5zm.5 11.945a2.5 2.5 0 0 1-.5.055 2.5 2.5 0 0 1-.5-.051v1.55a.499.499 0 1 0 1 0v-1.554z"/>
        <circle cx="2.5" cy="10.5" r="1.5"/>
        <circle cx="7.5" cy="5.5" r="1.5"/>
        <circle cx="12.5" cy="10.5" r="1.5"/>
    </g>
</svg>
